X:1
T:Queen of the Rushes  "Arranged by Terry Tully"
M:C|
L:1/8
Q:80
C:Traditional Irish
S:Hornpipe
K:HP
|: {g}c/2d/2|
e/2{g}e/2{A}e/2c/2a/2e/2{g}c/2d/2|
{g}c/2e/2{A}e/2c/2a/2e/2{g}c/2e/2|  !
{g}A/2d/2{gdedc}d{g}B/2c/2{gde}d/2B/2|
c/2d/2{g}B/2c/2{gde}d/2B/2c/2d/2e/2{g}e/2{A}e/2c/2a/2e/2{g}c/2d/2|
{g}c/2e/2{A}e/2c/2a/2e/2{g}c/2e/2|  !
e/2{g}e/2{A}e/2c/2{gde}d/2B/2{g}G/2{d}B/2|
{G}A2{GAG}A:| |:
B/2|  !
c/2{e}c/2{G}c/2e/2{gcd}c/2A/2{g}B/2c/2|
d/2{e}d/2{c}d/2c/2{gde}d/2B/2c/2d/2|
c/2{e}c/2{G}c/2e/2{gcd}c/2A/2{g}B/2c/2|  !
d/2{e}d/2{c}d/2B/2{g}G/2A/2{gBd}B/2A/2c/2{e}c/2{G}c/2e/2{gcd}c/2A/2{g}B/
2c/2|
d/2{e}d/2{c}d/2c/2{gde}d/2B/2c/2d/2|
e/2{g}e/2{A}e/2c/2{gde}d/2B/2{g}G/2{d}B/2|  !
{G}A2{GAG}A:| |:
{g}c/2d/2|
{g}e/2a/2{g}a/2e/2a/2e/2{g}c/2d/2|  !
{g}e/2a/2{g}a/2e/2a/2e/2{g}c/2a/2|
d/2a/2B/2c/2{gde}d/2B/2c/2d/2|
{g}B/2c/2{gde}d/2B/2c/2d/2{g}c/2d/2{g}e/2a/2{g}a/2e/2a/2e/2{g}c/2d/2|  !
